X: 12745
T: Father Newman's
R: reel
M: 4/4
K: Gmajor
Bd|:~e3g edBA|~G3B dGBd|e~a3 bagb|agea gedB|
~e3g edBA|~G3B dGBd|e~a3 gedg|1 edBA GABd:|2 edBA G3||
Bc|:d~G3 FDcA|d~g3 fgaf|d~g3 b~g3|afge f2ef|
d~G3 FDcA|d3g fgaf|e~a3 gedg|1 edBA G3:|2 edBA GABd||

